X: 121
%%titlespace -20
%%composerspace -10
T: Pirates of the Carribean
C: Klaus Bedelt
M: 6/8
L: 1/8
K: Em
"Em"E2E- EEF | "C"G2G -GGA | "D"F2F- FED | "Em"DE2B,2D | "Em"E2E- EEF | "C"G2G -GGA | "D"F2F- FED |"Em"E3B,2D | 
"Em"E2E- EEG | "Am"A2A -AAB |"C" c2c- cBA | "Em"BE2 E2F | (3"Em"G2"Em"G2"D"A2 | "Em"BE2 EFG | "D"FF2 -FGE | "D"F3-F3 | 
"Em"B3z3 | "C"c3z3 | "G" (3B2B2d2 | "D"BA2-A3 | "D"A3z3 | "Em"G3z3 | "Bm"(3F2G2F2 | "Em"FE2-EGA | 
"Em"B3z3 | "C"c3z3 | "G" (3B2B2d2 | "D"BA2-A3 | "D"A3z3 | "Em"G3z3 | "Bm"(3F2G2F2 |"Em" E3- E3|]

